src/components/footer/images/iconTel.svg

<svg width="19" height="20" viewBox="0 0 19 20" fill="none" xmlns="http://www.w3.org/2000/svg">
<path d="M18.5018 14.678L15.8447 11.8869C14.8957 10.8901 13.2825 11.2889 12.9029 12.5847C12.6182 13.4818 11.6693 13.9802 10.8152 13.7808C8.91728 13.2824 6.35509 10.6907 5.88061 8.59745C5.59592 7.70029 6.1653 6.70348 7.01936 6.40448C8.25301 6.00575 8.63259 4.31119 7.68363 3.31438L5.02655 0.523323C4.26738 -0.174441 3.12863 -0.174441 2.46436 0.523323L0.661336 2.41725C-1.14169 4.41087 0.851128 9.69394 5.31124 14.3789C9.77134 19.0639 14.8008 21.2569 16.6987 19.2633L18.5018 17.3693C19.1661 16.5719 19.1661 15.3757 18.5018 14.678Z" fill="white"/>
</svg>

<svg width="19" height="20" fill="none" xmlns="http://www.w3.org/2000/svg"><path d="M18.502 14.678l-2.657-2.791a1.733 1.733 0 00-2.942.698 1.794 1.794 0 01-2.088 1.196c-1.898-.499-4.46-3.09-4.934-5.184-.285-.897.284-1.894 1.138-2.193 1.234-.398 1.614-2.093.665-3.09L5.027.524c-.76-.698-1.898-.698-2.563 0L.661 2.416c-1.803 1.994.19 7.277 4.65 11.962s9.49 6.878 11.388 4.884l1.803-1.894c.664-.797.664-1.993 0-2.691z" fill="#fff"/></svg>
